icon/pk/folder-settings-one.svg

<svg viewBox="0 0 48 48" fill="none" xmlns="http://www.w3.org/2000/svg" height="1em" width="1em">
  <path d="M43 23V14C43 12.8954 42.1046 12 41 12H24L19 6H7C5.89543 6 5 6.89543 5 8V40C5 41.1046 5.89543 42 7 42H22" stroke="black" stroke-width="4" stroke-linecap="round" stroke-linejoin="round"/>
  <circle cx="35" cy="35" r="4" fill="#2F88FF" stroke="black" stroke-width="4"/>
  <path d="M35 28V31" stroke="black" stroke-width="4" stroke-linecap="round" stroke-linejoin="round"/>
  <path d="M35 39V42" stroke="black" stroke-width="4" stroke-linecap="round" stroke-linejoin="round"/>
  <path d="M39.8281 30L37.7068 32.1213" stroke="black" stroke-width="4" stroke-linecap="round" stroke-linejoin="round"/>
  <path d="M31.8281 38L29.7068 40.1213" stroke="black" stroke-width="4" stroke-linecap="round" stroke-linejoin="round"/>
  <path d="M30 30L32.1213 32.1213" stroke="black" stroke-width="4" stroke-linecap="round" stroke-linejoin="round"/>
  <path d="M38 38L40.1213 40.1213" stroke="black" stroke-width="4" stroke-linecap="round" stroke-linejoin="round"/>
  <path d="M28 35H29.5H31" stroke="black" stroke-width="4" stroke-linecap="round" stroke-linejoin="round"/>
  <path d="M39 35H40.5H42" stroke="black" stroke-width="4" stroke-linecap="round" stroke-linejoin="round"/>
</svg>

<svg width="48" height="48" fill="none" xmlns="http://www.w3.org/2000/svg"><path d="M43 23v-9a2 2 0 0 0-2-2H24l-5-6H7a2 2 0 0 0-2 2v32a2 2 0 0 0 2 2h15" stroke="#000" stroke-width="4" stroke-linecap="round" stroke-linejoin="round"/><circle cx="35" cy="35" r="4" fill="#2F88FF" stroke="#000" stroke-width="4"/><path d="M35 28v3M35 39v3M39.828 30l-2.121 2.121M31.828 38l-2.121 2.121M30 30l2.121 2.121M38 38l2.121 2.121M28 35h3M39 35h3" stroke="#000" stroke-width="4" stroke-linecap="round" stroke-linejoin="round"/></svg>
